; generated by PrusaSlicer 2.9.2 on 2025-07-28 at 09:31:52 UTC


; external perimeters extrusion width = 0.45mm
; perimeters extrusion width = 0.45mm
; infill extrusion width = 0.45mm
; solid infill extrusion width = 0.45mm
; top infill extrusion width = 0.42mm
; first layer extrusion width = 0.50mm

M73 P0 R6
M73 Q0 S6
M201 X4000 Y4000 Z400 E5000 ; sets maximum accelerations, mm/sec^2
M203 X400 Y400 Z12 E80 ; sets maximum feedrates, mm / sec
M204 P4000 R1250 T4000 ; sets acceleration (P, T) and retract acceleration (R), mm/sec^2
M205 X8.00 Y8.00 Z2.00 E10.00 ; sets the jerk limits, mm/sec
M205 S0 T0 ; sets the minimum extruding and travel feed rate, mm/sec

M486 S0
M486 Ahelical_cube - curved_90
M486 S-1

;TYPE:Custom
M862.3 P "MINI" ; printer model check
M862.1 P0.4 ; nozzle diameter check
M862.5 P2 ; g-code level check
M862.6 P"Input shaper" ; FW feature check
M115 U6.0.1+14848
G90 ; use absolute coordinates
M83 ; extruder relative mode
M104 S170 ; set extruder temp for bed leveling
M140 S60 ; set bed temp
M109 R170 ; wait for bed leveling temp
M190 S60 ; wait for bed temp
M569 S1 X Y ; set stealthchop for X Y
M204 T1250 ; set travel acceleration
G28 ; home all without mesh bed level
G29 ; mesh bed leveling
M104 S230 ; set extruder temp
G92 E0

G1 X0 Y-2 Z3 F2400

M109 S230 ; wait for extruder temp

; intro line
G1 X10 Z0.2 F1000
G1 X70 E8 F900
G1 X140 E10 F700
M73 P1 R6
M73 Q1 S6
G92 E0

M569 S0 X Y ; set spreadcycle for X Y
M204 T4000 ; restore travel acceleration
M572 W0.06 ; set smooth time
M221 S95 ; set flow
G21 ; set units to millimeters
G90 ; use absolute coordinates
M83 ; use relative distances for extrusion
M572 S0.27
M107
;LAYER_CHANGE
;Z:0.2
;HEIGHT:0.2
G1 E-2.5 F4200
M73 P2 R6
M73 Q2 S6
G1 Z.4 F720
M486 S0
G1 X77.914 Y102.013 F24000
G1 Z.2 F720
G1 E2.5 F2400
M204 P500
;TYPE:External perimeter
;WIDTH:0.499999
G1 F1800
G1 X77.987 Y77.914 E.91592
G1 X102.086 Y77.987 E.91592
M73 P3 R6
M73 Q3 S6
G1 X102.049 Y90.037 E.45798
G1 X102.013 Y102.086 E.45794
G1 X77.974 Y102.013 E.91364
M204 P2000
M106 S84.15
;LAYER_CHANGE
;Z:0.35
;HEIGHT:0.15
;BEFORE_LAYER_CHANGE
G92 E0.0
;0.35
M201 X3999.97 Y3999.97
M74 W0.0109203

G1 E-2.5 F4200
G1 Z.35 F720
;AFTER_LAYER_CHANGE
;0.35
M104 S220 ; set temperature
M204 T4000
G1 Z.35
G1 X77.62 Y102.167 F24000
G1 E2.5 F2400
;WIDTH:0.449999
G1 F8400
G1 X77.833 Y77.62 E.63961
G1 X102.38 Y77.833 E.63961
G1 X102.274 Y90.107 E.31982
G1 X102.167 Y102.38 E.31979
G1 X77.68 Y102.168 E.63805
M73 Q4 S6
M106 S170.85
;LAYER_CHANGE
;Z:0.5
;HEIGHT:0.15
;BEFORE_LAYER_CHANGE
G92 E0.0
;0.5
M201 X3999.96 Y3999.96
M74 W0.0185463

G1 E-2.5 F4200
M73 P4 R6
G1 Z.5 F720
;AFTER_LAYER_CHANGE
;0.5
G1 Z.5
G1 X77.562 Y102.108 F24000
G1 E2.5 F2400
G1 F8400
G1 X77.892 Y77.562 E.63962
G1 X102.438 Y77.892 E.63962
G1 X102.273 Y90.165 E.31981
G1 X102.108 Y102.438 E.31981
G1 X77.622 Y102.109 E.63806
M106 S255
;LAYER_CHANGE
;Z:0.65
;HEIGHT:0.15
;BEFORE_LAYER_CHANGE
G92 E0.0
;0.65
M201 X3999.94 Y3999.94
M74 W0.0261725

G1 E-2.5 F4200
G1 Z.65 F720
;AFTER_LAYER_CHANGE
;0.65
G1 Z.65
G1 X77.504 Y102.049 F24000
G1 E2.5 F2400
G1 F8400
G1 X77.951 Y77.504 E.63964
G1 X102.496 Y77.951 E.63964
G1 X102.272 Y90.223 E.31981
G1 X102.049 Y102.496 E.31983
G1 X77.564 Y102.05 E.63808
;LAYER_CHANGE
;Z:0.8
;HEIGHT:0.15
;BEFORE_LAYER_CHANGE
G92 E0.0
;0.8
M201 X3999.92 Y3999.92
M74 W0.0337988

G1 E-2.5 F4200
G1 Z.8 F720
;AFTER_LAYER_CHANGE
;0.8
G1 Z.8
G1 X77.447 Y101.99 F24000
G1 E2.5 F2400
G1 F8400
G1 X78.01 Y77.447 E.63965
G1 X102.553 Y78.01 E.63965
G1 X102.272 Y90.281 E.31981
G1 X101.99 Y102.553 E.31984
G1 X77.507 Y101.992 E.63809
;LAYER_CHANGE
;Z:0.95
;HEIGHT:0.15
;BEFORE_LAYER_CHANGE
G92 E0.0
;0.95
M201 X3999.9 Y3999.9
M74 W0.0414253

G1 E-2.5 F4200
G1 Z.95 F720
;AFTER_LAYER_CHANGE
;0.95
G1 Z.95
G1 X77.392 Y101.93 F24000
G1 E2.5 F2400
G1 F8400
G1 X77.391 Y101.93 E.00003
G1 X78.07 Y77.391 E.63963
G1 X102.609 Y78.07 E.63963
M73 Q5 S6
G1 X102.27 Y90.339 E.3198
M73 P5 R6
G1 X101.93 Y102.609 E.31983
G1 X77.452 Y101.932 E.63804
;LAYER_CHANGE
;Z:1.1
;HEIGHT:0.15
;BEFORE_LAYER_CHANGE
G92 E0.0
;1.1
M201 X3999.89 Y3999.89
M74 W0.0490516

G1 E-2.5 F4200
G1 Z1.1 F720
;AFTER_LAYER_CHANGE
;1.1
G1 Z1.1
G1 X77.335 Y101.87 F24000
G1 E2.5 F2400
G1 F8400
G1 X78.13 Y77.335 E.63961
G1 X102.665 Y78.13 E.63961
G1 X102.268 Y90.397 E.31979
G1 X101.87 Y102.665 E.31982
G1 X77.395 Y101.872 E.63805
;LAYER_CHANGE
;Z:1.25
;HEIGHT:0.15
;BEFORE_LAYER_CHANGE
G92 E0.0
;1.25
M201 X3999.87 Y3999.87
M74 W0.0566776

G1 E-2.5 F4200
G1 Z1.25 F720
;AFTER_LAYER_CHANGE
;1.25
G1 Z1.25
G1 X77.279 Y101.81 F24000
G1 E2.5 F2400
G1 F8400
G1 X78.19 Y77.279 E.63961
G1 X102.721 Y78.19 E.63961
G1 X102.266 Y90.455 E.31979
G1 X101.81 Y102.721 E.31982
G1 X77.339 Y101.813 E.63805
;LAYER_CHANGE
;Z:1.4
;HEIGHT:0.15
;BEFORE_LAYER_CHANGE
G92 E0.0
;1.4
M201 X3999.85 Y3999.85
M74 W0.0643036

G1 E-2.5 F4200
G1 Z1.4 F720
;AFTER_LAYER_CHANGE
;1.4
G1 Z1.4
G1 X77.223 Y101.749 F24000
G1 E2.5 F2400
G1 F8400
G1 X78.25 Y77.223 E.6396
G1 X102.777 Y78.25 E.63963
G1 X102.264 Y90.513 E.3198
G1 X101.75 Y102.777 E.31983
G1 X77.281 Y101.753 E.63812
M73 Q6 S6
;LAYER_CHANGE
;Z:1.55
;HEIGHT:0.15
;BEFORE_LAYER_CHANGE
G92 E0.0
;1.55
M201 X3999.83 Y3999.83
M74 W0.07193

G1 E-2.5 F4200
M73 P6 R6
G1 Z1.55 F720
;AFTER_LAYER_CHANGE
;1.55
G1 Z1.55
G1 X77.167 Y101.69 F24000
G1 E2.5 F2400
G1 F8400
G1 X78.31 Y77.167 E.63966
G1 X102.833 Y78.31 E.63966
G1 X102.262 Y90.571 E.31982
G1 X101.69 Y102.833 E.31984
G1 X77.227 Y101.693 E.63809
;LAYER_CHANGE
;Z:1.7
;HEIGHT:0.15
;BEFORE_LAYER_CHANGE
G92 E0.0
;1.7
M201 X3999.82 Y3999.82
M74 W0.0795566

G1 E-2.5 F4200
G1 Z1.7 F720
;AFTER_LAYER_CHANGE
;1.7
G1 Z1.7
G1 X77.114 Y101.629 F24000
G1 E2.5 F2400
G1 F8400
G1 X77.112 Y101.629 E.00005
G1 X78.371 Y77.113 E.63962
G1 X102.888 Y78.371 E.63965
G1 X102.258 Y90.629 E.31981
G1 X101.629 Y102.888 E.31984
G1 X77.174 Y101.632 E.63803
;LAYER_CHANGE
;Z:1.85
;HEIGHT:0.15
;BEFORE_LAYER_CHANGE
G92 E0.0
;1.85
M201 X3999.8 Y3999.8
M74 W0.0871829

G1 E-2.5 F4200
G1 Z1.85 F720
;AFTER_LAYER_CHANGE
;1.85
G1 Z1.85
G1 X77.058 Y101.568 F24000
G1 E2.5 F2400
G1 F8400
G1 X78.432 Y77.058 E.63963
G1 X102.942 Y78.432 E.63963
G1 X102.255 Y90.687 E.31981
G1 X101.568 Y102.942 E.31981
G1 X77.118 Y101.571 E.63806
;LAYER_CHANGE
;Z:2
;HEIGHT:0.15
;BEFORE_LAYER_CHANGE
G92 E0.0
;2
M201 X3999.78 Y3999.78
M74 W0.0948091

G1 E-2.5 F4200
G1 Z2 F720
;AFTER_LAYER_CHANGE
;2
G1 Z2
G1 X77.004 Y101.507 F24000
G1 E2.5 F2400
G1 F8400
G1 X78.493 Y77.004 E.63962
G1 X102.996 Y78.493 E.63962
M73 Q7 S6
G1 X102.252 Y90.745 E.31982
M73 P7 R6
G1 X101.507 Y102.996 E.3198
G1 X77.064 Y101.51 E.63806
;LAYER_CHANGE
;Z:2.15
;HEIGHT:0.15
;BEFORE_LAYER_CHANGE
G92 E0.0
;2.15
M201 X3999.76 Y3999.76
M74 W0.102435

G1 E-2.5 F4200
G1 Z2.15 F720
;AFTER_LAYER_CHANGE
;2.15
G1 Z2.15
G1 X76.949 Y101.444 F24000
G1 E2.5 F2400
G1 F8400
G1 X78.554 Y76.949 E.6396
G1 X103.051 Y78.554 E.63966
G1 X102.248 Y90.803 E.31984
G1 X101.446 Y103.051 E.31981
G1 X77.008 Y101.449 E.63812
;LAYER_CHANGE
;Z:2.3
;HEIGHT:0.15
;BEFORE_LAYER_CHANGE
G92 E0.0
;2.3
M201 X3999.75 Y3999.75
M74 W0.110062

G1 E-2.5 F4200
G1 Z2.3 F720
;AFTER_LAYER_CHANGE
;2.3
G1 Z2.3
G1 X76.895 Y101.384 F24000
G1 E2.5 F2400
G1 F8400
G1 X78.617 Y76.895 E.63965
G1 X103.105 Y78.616 E.63963
G1 X102.245 Y90.86 E.31981
G1 X101.384 Y103.105 E.31984
G1 X76.955 Y101.389 E.63808
;LAYER_CHANGE
;Z:2.45
;HEIGHT:0.15
;BEFORE_LAYER_CHANGE
G92 E0.0
;2.45
M201 X3999.73 Y3999.73
M74 W0.117688

G1 E-2.5 F4200
G1 Z2.45 F720
;AFTER_LAYER_CHANGE
;2.45
G1 Z2.45
G1 X76.844 Y101.322 F24000
G1 E2.5 F2400
G1 F8400
G1 X76.842 Y101.322 E.00005
G1 X78.678 Y76.842 E.63964
G1 X103.158 Y78.678 E.63964
G1 X102.24 Y90.918 E.31982
G1 X101.322 Y103.158 E.31982
G1 X76.903 Y101.327 E.63804
M73 Q8 S6
;LAYER_CHANGE
;Z:2.6
;HEIGHT:0.15
;BEFORE_LAYER_CHANGE
G92 E0.0
;2.6
M201 X3999.71 Y3999.71
M74 W0.125315

G1 E-2.5 F4200
M73 P8 R6
G1 Z2.6 F720
;AFTER_LAYER_CHANGE
;2.6
G1 Z2.6
G1 X76.789 Y101.26 F24000
G1 E2.5 F2400
G1 F8400
G1 X78.74 Y76.789 E.63963
G1 X103.211 Y78.74 E.63963
G1 X102.235 Y90.976 E.31983
G1 X101.26 Y103.211 E.3198
G1 X76.849 Y101.265 E.63806
;LAYER_CHANGE
;Z:2.75
;HEIGHT:0.15
;BEFORE_LAYER_CHANGE
G92 E0.0
;2.75
M201 X3999.69 Y3999.69
M74 W0.132941

G1 E-2.5 F4200
G1 Z2.75 F720
;AFTER_LAYER_CHANGE
;2.75
G1 Z2.75
G1 X76.736 Y101.198 F24000
G1 E2.5 F2400
G1 F8400
G1 X78.802 Y76.736 E.63964
G1 X103.264 Y78.802 E.63964
G1 X102.231 Y91.033 E.31982
G1 X101.198 Y103.264 E.31982
G1 X76.796 Y101.203 E.63808
;LAYER_CHANGE
;Z:2.9
;HEIGHT:0.15
;BEFORE_LAYER_CHANGE
G92 E0.0
;2.9
M201 X3999.68 Y3999.68
M74 W0.140567

G1 E-2.5 F4200
G1 Z2.9 F720
;AFTER_LAYER_CHANGE
;2.9
G1 Z2.9
G1 X76.684 Y101.134 F24000
G1 E2.5 F2400
G1 F8400
G1 X78.865 Y76.683 E.63962
G1 X103.317 Y78.865 E.63965
G1 X102.226 Y91.091 E.31982
G1 X101.135 Y103.317 E.31982
G1 X76.742 Y101.14 E.6381
;LAYER_CHANGE
;Z:3.05
;HEIGHT:0.15
;BEFORE_LAYER_CHANGE
G92 E0.0
;3.05
M201 X3999.66 Y3999.66
M74 W0.148194

G1 E-2.5 F4200
G1 Z3.05 F720
;AFTER_LAYER_CHANGE
;3.05
G1 Z3.05
G1 X76.631 Y101.073 F24000
G1 E2.5 F2400
G1 F8400
G1 X78.931 Y76.631 E.63967
G1 X103.369 Y78.927 E.63955
M73 Q9 S6
G1 X102.221 Y91.147 E.3198
M73 P9 R6
G1 X101.073 Y103.369 E.31985
G1 X76.69 Y101.079 E.63811
;LAYER_CHANGE
;Z:3.2
;HEIGHT:0.15
;BEFORE_LAYER_CHANGE
G92 E0.0
;3.2
M201 X3999.64 Y3999.64
M74 W0.15582

G1 E-2.5 F4200
G1 Z3.2 F720
;AFTER_LAYER_CHANGE
;3.2
G1 Z3.2
G1 X76.581 Y101.01 F24000
G1 E2.5 F2400
G1 F8400
G1 X76.579 Y101.009 E.00006
G1 X78.991 Y76.579 E.63964
G1 X103.421 Y78.991 E.63964
G1 X102.215 Y91.206 E.31982
G1 X101.009 Y103.421 E.31982
G1 X76.641 Y101.016 E.63801
;LAYER_CHANGE
;Z:3.35
;HEIGHT:0.15
;BEFORE_LAYER_CHANGE
G92 E0.0
;3.35
M201 X3999.62 Y3999.62
M74 W0.163446

G1 E-2.5 F4200
G1 Z3.35 F720
;AFTER_LAYER_CHANGE
;3.35
G1 Z3.35
G1 X76.528 Y100.946 F24000
G1 E2.5 F2400
G1 F8400
G1 X79.054 Y76.528 E.63962
G1 X103.472 Y79.054 E.63962
G1 X102.209 Y91.263 E.31981
G1 X100.946 Y103.472 E.31981
G1 X76.588 Y100.952 E.63805
;LAYER_CHANGE
;Z:3.5
;HEIGHT:0.15
;BEFORE_LAYER_CHANGE
G92 E0.0
;3.5
M201 X3999.61 Y3999.61
M74 W0.171072

G1 E-2.5 F4200
G1 Z3.5 F720
;AFTER_LAYER_CHANGE
;3.5
G1 Z3.5
G1 X76.477 Y100.883 F24000
G1 E2.5 F2400
G1 F8400
G1 X79.117 Y76.477 E.63963
G1 X103.523 Y79.117 E.63963
G1 X102.203 Y91.32 E.31981
G1 X100.883 Y103.523 E.31981
G1 X76.536 Y100.889 E.63808
M73 Q10 S6
;LAYER_CHANGE
;Z:3.65
;HEIGHT:0.15
;BEFORE_LAYER_CHANGE
G92 E0.0
;3.65
M201 X3999.59 Y3999.59
M74 W0.178699

G1 E-2.5 F4200
M73 P10 R6
G1 Z3.65 F720
;AFTER_LAYER_CHANGE
;3.65
G1 Z3.65
G1 X76.426 Y100.818 F24000
G1 E2.5 F2400
G1 F8400
G1 X79.181 Y76.425 E.63962
G1 X103.575 Y79.181 E.63965
M73 P10 R5
G1 X102.197 Y91.378 E.31982
M73 Q10 S5
G1 X100.819 Y103.575 E.31982
G1 X76.483 Y100.826 E.63812
;LAYER_CHANGE
;Z:3.8
;HEIGHT:0.15
;BEFORE_LAYER_CHANGE
G92 E0.0
;3.8
M201 X3999.57 Y3999.57
M74 W0.186325

G1 E-2.5 F4200
G1 Z3.8 F720
;AFTER_LAYER_CHANGE
;3.8
G1 Z3.8
G1 X76.374 Y100.756 F24000
G1 E2.5 F2400
G1 F8400
G1 X79.251 Y76.375 E.63967
G1 X103.626 Y79.244 E.63949
G1 X102.191 Y91.433 E.31979
G1 X100.756 Y103.626 E.31989
G1 X76.434 Y100.763 E.6381
;LAYER_CHANGE
;Z:3.95
;HEIGHT:0.15
;BEFORE_LAYER_CHANGE
G92 E0.0
;3.95
M201 X3999.55 Y3999.55
M74 W0.193951

G1 E-2.5 F4200
G1 Z3.95 F720
;AFTER_LAYER_CHANGE
;3.95
G1 Z3.95
G1 X76.326 Y100.691 F24000
G1 E2.5 F2400
G1 F8400
G1 X76.324 Y100.691 E.00005
G1 X79.309 Y76.325 E.63962
G1 X103.676 Y79.309 E.63964
G1 X102.183 Y91.492 E.31981
G1 X100.691 Y103.676 E.31983
G1 X76.385 Y100.699 E.63804
;LAYER_CHANGE
;Z:4.1
;HEIGHT:0.15
;BEFORE_LAYER_CHANGE
G92 E0.0
;4.1
M201 X3999.54 Y3999.54
M74 W0.201578

G1 E-2.5 F4200
G1 Z4.1 F720
;AFTER_LAYER_CHANGE
;4.1
G1 Z4.1
G1 X76.275 Y100.627 F24000
G1 E2.5 F2400
G1 F8400
G1 X79.373 Y76.275 E.63962
G1 X103.725 Y79.373 E.63962
M73 Q11 S5
G1 X102.176 Y91.549 E.31981
M73 P11 R5
G1 X100.627 Y103.725 E.31981
G1 X76.334 Y100.634 E.63807
;LAYER_CHANGE
;Z:4.25
;HEIGHT:0.15
;BEFORE_LAYER_CHANGE
G92 E0.0
;4.25
M201 X3999.52 Y3999.52
M74 W0.209204

G1 E-2.5 F4200
G1 Z4.25 F720
;AFTER_LAYER_CHANGE
;4.25
G1 Z4.25
G1 X76.225 Y100.562 F24000
G1 E2.5 F2400
G1 F8400
G1 X79.438 Y76.225 E.63962
G1 X103.775 Y79.438 E.63962
G1 X102.169 Y91.607 E.31982
G1 X100.562 Y103.775 E.3198
G1 X76.284 Y100.57 E.63807
;LAYER_CHANGE
;Z:4.4
;HEIGHT:0.15
;BEFORE_LAYER_CHANGE
G92 E0.0
;4.4
M201 X3999.5 Y3999.5
M74 W0.21683

G1 E-2.5 F4200
G1 Z4.4 F720
;AFTER_LAYER_CHANGE
;4.4
G1 Z4.4
G1 X76.175 Y100.496 F24000
G1 E2.5 F2400
G1 F8400
G1 X79.502 Y76.175 E.6396
G1 X103.825 Y79.502 E.63965
G1 X102.161 Y91.664 E.31984
G1 X100.498 Y103.825 E.31981
G1 X76.233 Y100.505 E.63813
;LAYER_CHANGE
;Z:4.55
;HEIGHT:0.15
;BEFORE_LAYER_CHANGE
G92 E0.0
;4.55
M201 X3999.48 Y3999.48
M74 W0.224456

G1 E-2.5 F4200
G1 Z4.55 F720
;AFTER_LAYER_CHANGE
;4.55
G1 Z4.55
G1 X76.125 Y100.433 F24000
G1 E2.5 F2400
G1 F8400
G1 X79.567 Y76.126 E.63965
G1 X103.875 Y79.567 E.63968
G1 X102.154 Y91.721 E.31984
G1 X100.433 Y103.875 E.31984
G1 X76.185 Y100.441 E.6381
M73 Q12 S5
;LAYER_CHANGE
;Z:4.7
;HEIGHT:0.15
;BEFORE_LAYER_CHANGE
G92 E0.0
;4.7
M201 X3999.47 Y3999.47
M74 W0.232083

G1 E-2.5 F4200
M73 P12 R5
G1 Z4.7 F720
;AFTER_LAYER_CHANGE
;4.7
G1 Z4.7
G1 X76.079 Y100.367 F24000
G1 E2.5 F2400
G1 F8400
G1 X76.077 Y100.367 E.00005
G1 X79.633 Y76.077 E.63964
G1 X103.923 Y79.633 E.63964
G1 X102.145 Y91.778 E.31982
G1 X100.367 Y103.923 E.31982
G1 X76.138 Y100.376 E.63803
;LAYER_CHANGE
;Z:4.85
;HEIGHT:0.15
;BEFORE_LAYER_CHANGE
G92 E0.0
;4.85
M201 X3999.45 Y3999.45
M74 W0.23971

G1 E-2.5 F4200
G1 Z4.85 F720
;AFTER_LAYER_CHANGE
;4.85
G1 Z4.85
G1 X76.029 Y100.301 F24000
G1 E2.5 F2400
G1 F8400
G1 X79.699 Y76.029 E.63961
G1 X103.971 Y79.699 E.63961
G1 X102.136 Y91.835 E.31981
G1 X100.301 Y103.971 E.31981
G1 X76.089 Y100.31 E.63803
;LAYER_CHANGE
;Z:5
;HEIGHT:0.15
;BEFORE_LAYER_CHANGE
G92 E0.0
;5
M201 X3999.43 Y3999.43
M74 W0.247336

G1 E-2.5 F4200
G1 Z5 F720
;AFTER_LAYER_CHANGE
;5
G1 Z5
G1 X75.981 Y100.236 F24000
G1 E2.5 F2400
G1 F8400
G1 X79.764 Y75.981 E.63962
G1 X104.019 Y79.764 E.63962
G1 X102.127 Y91.892 E.31983
G1 X100.236 Y104.019 E.3198
G1 X76.04 Y100.245 E.63807
;LAYER_CHANGE
;Z:5.15
;HEIGHT:0.15
;BEFORE_LAYER_CHANGE
G92 E0.0
;5.15
M201 X3999.41 Y3999.41
M74 W0.254962

G1 E-2.5 F4200
G1 Z5.15 F720
;AFTER_LAYER_CHANGE
;5.15
G1 Z5.15
G1 X75.933 Y100.17 F24000
G1 E2.5 F2400
G1 F8400
G1 X79.83 Y75.933 E.63962
G1 X104.067 Y79.83 E.63962
M73 Q13 S5
G1 X102.119 Y91.948 E.3198
M73 P13 R5
G1 X100.17 Y104.067 E.31983
G1 X75.992 Y100.179 E.63807
;LAYER_CHANGE
;Z:5.3
;HEIGHT:0.15
;BEFORE_LAYER_CHANGE
G92 E0.0
;5.3
M201 X3999.4 Y3999.4
M74 W0.262588

G1 E-2.5 F4200
G1 Z5.3 F720
;AFTER_LAYER_CHANGE
;5.3
G1 Z5.3
G1 X75.885 Y100.102 F24000
G1 E2.5 F2400
G1 F8400
G1 X79.896 Y75.885 E.63959
G1 X104.115 Y79.896 E.63964
G1 X102.11 Y92.005 E.3198
G1 X100.104 Y104.115 E.31983
G1 X75.942 Y100.114 E.63813
;LAYER_CHANGE
;Z:5.45
;HEIGHT:0.15
;BEFORE_LAYER_CHANGE
G92 E0.0
;5.45
M201 X3999.38 Y3999.38
M74 W0.270214

G1 E-2.5 F4200
G1 Z5.45 F720
;AFTER_LAYER_CHANGE
;5.45
G1 Z5.45
G1 X75.838 Y100.038 F24000
G1 E2.5 F2400
G1 F8400
G1 X79.962 Y75.838 E.63964
G1 X104.162 Y79.962 E.63964
G1 X102.1 Y92.062 E.31982
G1 X100.038 Y104.162 E.31982
G1 X75.897 Y100.048 E.63808
;LAYER_CHANGE
;Z:5.6
;HEIGHT:0.15
;BEFORE_LAYER_CHANGE
G92 E0.0
;5.6
M201 X3999.36 Y3999.36
M74 W0.277841

G1 E-2.5 F4200
G1 Z5.6 F720
;AFTER_LAYER_CHANGE
;5.6
G1 Z5.6
G1 X75.791 Y99.971 F24000
G1 E2.5 F2400
G1 F8400
G1 X80.029 Y75.791 E.63963
G1 X104.209 Y80.029 E.63963
G1 X102.09 Y92.119 E.31982
G1 X99.971 Y104.209 E.31982
G1 X75.85 Y99.981 E.63807
M73 Q14 S5
;LAYER_CHANGE
;Z:5.75
;HEIGHT:0.15
;BEFORE_LAYER_CHANGE
G92 E0.0
;5.75
M201 X3999.34 Y3999.34
M74 W0.285467

G1 E-2.5 F4200
M73 P14 R5
G1 Z5.75 F720
;AFTER_LAYER_CHANGE
;5.75
G1 Z5.75
G1 X75.745 Y99.904 F24000
G1 E2.5 F2400
G1 F8400
G1 X80.096 Y75.745 E.63961
G1 X104.255 Y80.096 E.63961
G1 X102.08 Y92.176 E.31981
G1 X99.904 Y104.255 E.31979
G1 X75.804 Y99.915 E.63804
;LAYER_CHANGE
;Z:5.9
;HEIGHT:0.15
;BEFORE_LAYER_CHANGE
G92 E0.0
;5.9
M201 X3999.33 Y3999.33
M74 W0.293093

G1 E-2.5 F4200
G1 Z5.9 F720
;AFTER_LAYER_CHANGE
;5.9
G1 Z5.9
G1 X75.698 Y99.837 F24000
G1 E2.5 F2400
G1 F8400
